X:1
T:Salve Regina - Aichinger
T:James Gibb editions
T:#
%%score [ 1 2 3 4 ]
L:1/8
Q:1/4=200
M:2/2
K:C
V:1 treble nm="Soprano" snm="S"
V:2 treble nm="Alto" snm="A"
V:3 treble-8 nm="Tenor" snm="T"
V:4 bass nm="Bass" snm="B"
V:1
"^Gregor Aichinger\n (1564-1628)""^Salve Regina" G8 | A4 B4 | c8 | B8 | G8 | G8- | G4 ^F4 | G4 A4 | %8
w: Sal-|ve Re-|gi-|na,|Ma-|ter|* mi-|se- ri-|
 B4 G4 | A8 | d8 | B4 c4 |[M:2/2] A8 | B8 | c8 x4 | c8 | B4 B4 x4 | A8 x4 | G8 | B8 | B4 d4 | %21
w: cor- di-|ae,|vi-|ta, dul-|ce-|do,|et|spes|no- stra|sal-|ve.|Ad|te cla-|
 ^c8 x2 | d4 A6 | A2 G4 A4 x2 | B4 c8 | (B4 A6 | GF G4) A16 | z4 ^F4 | G4 A4 | z2 G2 G4 | ^F4 G4 | %31
w: ma-|mus e-|xu- les fi-|li- i|E\- *|* * * vae.|Ad|te su-|spi- ra-|mus ge-|
 G8 | F4 F4 | E8 | E4 E4 | F4 F8 | D4 E4 x4 | C4 D8 | D16 | z16 | z4 d4 x8 | A4 B4 | (c2 BA G2 A2 | %43
w: men-|tes et|flen-|tes in|hac la-|cry- ma-|rum val-|le.||E-|ia er-|go * * * *|
 B2 A2 B2 c2 | d8 | e8 x4 | d8 x8 | e8 x12 | d4 (c6 | BA B4) c8 | A8- | A4 A4 | A8 | G4 G4 | %54
w: ||ad-|vo-|ca-|ta no\-|* * * stra,|il\-|* los|tu-|os mi-|
 F4 G4 | A8 | ^G8 | A6 A2 | F4 E4 | D4 A4 | ^G4 A4- | A2 ^G^F G4) | A8 | ^F8 | G8- | G8 | ^F8 | %67
w: se- ri-|cor-|des|o- cu-|los ad|nos con-|ver\- *||te.|Et|Je\-||sum|
 G6 G2 | G4 G4 | G4 E4 | G4 (A4- | A2 G2 G8) | ^F4 G16 | z4 G4 | c4 c4 | B8 | A8 | G6 G2 | A8 | %79
w: be- ne-|di- ctum|fru- ctum|ven- tris||tu- i,|no-|bis post|hoc|ex-|i- li-|um|
 A8 | (G6 A2 | B4 c6 | BA B4) c8 x2 | z4 G4 | G8 | F8 | z4 E4 | E8 | E4 E4 | A4 B4 | c8 | d4 c4 | %92
w: o-|sten\- *||* * * de.|O|cle-|mens,|O|pi-|a, O|dul- cis|Vir-|go Ma-|
 (A6 B2 | c2 B2 A2 G2 x2 | A8) x2 | B4 G4 x4 | (d4 c2 B2 | A8- x8 | A4) B4 x8 | c8 x8 | B4 G4 | %101
w: ri\- *|||a, O|dul\- * *||* cis|Vir-|go Ma-|
 A8 | A4 D4 | F4 G4 | (A6 B2 | c8) | B4 G4 | (^F2 E2 F2 G2 | A2 G2 G6 x2 | ^FE F4) G8 | z4 G4 | %111
w: ri-|a, O|dul- cis|Vir\- *||go Ma-|ri\- * * *||* * * a,|O|
 G8 | F8 | z4 E4 | E8 | E4 E4 | A4 B4 | c8 | d4 c4 | (A6 B2 | c2 B2 A2 G2 x2 | A8) x2 | B4 G4 x8 | %123
w: cle-|mens,|O|pi-|a, O|dul- cis|Vir-|go Ma-|ri\- *|||a, O|
 (d4 c2 B2 x8 | A8- x8 | A4) B4 | c8 | B4 G4 | A8 | A4 D4 | F4 G4 | (A6 B2 | c8) | %133
w: dul\- * *||* cis|Vir-|go Ma-|ri-|a, O|dul- cis|Vir\- *||
 B4[Q:1/4=197] G4 |[Q:1/4=194] (^F2[Q:1/4=192] E2[Q:1/4=189] F2[Q:1/4=187] G2 | %135
w: go Ma-|ri\- * * *|
[Q:1/4=185] A2[Q:1/4=183] G2[Q:1/4=179] G6 x2 | %136
w: |
[Q:1/4=175] ^F[Q:1/4=174]E[Q:1/4=171] F4)[Q:1/4=170] !fermata!G16 |] x16 | x8 | x16 | x8 | x8 | %142
w: * * * a.||||||
 x8 | x8 | x16 |] %145
w: |||
V:2
 G,8 | ^F,4 G,4 | A,8 | D8 | E8 | D8- | D4 C4 | D6 D2 | D4 G4 | ^F8 | ^F8 | G4 E4 |[M:2/2] ^F8 | %13
w: Sal-|ve Re-|gi-|na,|Ma-|ter|* mi-|se- ri-|cor- di-|ae,|vi-|ta, dul-|ce-|
 G8 | E4 E4 x4 | G4 (A4- | A2 G2 G8) | ^F4 G8 | G8 | G4 A4 | A8 | ^F4 F6 | ^F2 G4 !courtesy!^F4 | %23
w: do,|et spes|no- stra||sal- ve.|Ad|te cla-|ma-|mus e-|xu- les fi-|
 G4 G8- | G4 !courtesy!=F4 x4 | E4 D4 x2 | E8 x14 | ^F8 | z4 D4 | E4 F4 | z2 D2 ^C4 | D4 D4 | E8 | %33
w: li- i,|* fi-|li- i|E-|vae.|Ad|te su-|spi- ra-|mus ge-|men-|
 D4 D4 | B,8 | B,4 ^C4 x4 | D4 !courtesy!=C8 | B,4 C4 x4 | G,4 A,8 x4 | B,16 | z16 | G8 | ^F4 G4 | %43
w: tes et|flen-|tes in|hac la-|cry- ma-|rum val-|le.||E-|ia er-|
 (C2 D2 E2 !courtesy!=F2 | G8) | z4 G8 | G4 G12 | G4 G16 | E8 x2 | F8- x6 | F4 F4 | F8 | D4 C4 | %53
w: go * * *||ad-|vo- ca-|ta no-|stra,|il\-|* los|tu-|os mi-|
 D4 E4 | C4 D4 | E8- | E4 E4 | D4 E4 | F4 E4 | E8- | E8 | ^C8 | z4 D4 | (E4 D4- | D2 ^CB, C4) | %65
w: se- ri-|cor- des|o\-|* cu-|los ad|nos con-|ver\-||te.|Et|Je\- *||
 D8 | E6 E2 | E4 E4 | D4 C4 | D8 | E4 C4 | D4 D4 x4 | B,8 x12 | E8 | D8 | z4 C4 | G4 G4 | E8 | %78
w: sum|be- ne-|di- ctum|fru- ctum|ven-|tris tu-|i, no-|bis|post|hoc,|no-|bis post|hoc|
 z4 D4 | (F6 ED | C4 D4 | E4 G4 x2 | G16 | E8 | z4 D4 | E8 | D8 | z4 C4 | B,8 | C4 A,4 | C4 D4 | %91
w: ex-|i\- * *|* li-|um o-|sten-|de.|O|cle-|mens,|O|pi-|a, O|dul- cis|
 E8 | D4 E4 | F4 A6 | G2 G4- G4 | ^F4) G8 | z4 E4 | F4 D4 x8 | A4 (G2 F2 x8 | E4) F4 x8 | %100
w: Vir-|go Ma-|ri- *||* a,|O|dul- cis|Vir- go *|* Ma-|
 (G2 F2 E2 D2 | E8) | F4 F4 | D4 E4 | F8 | E4 A,4 | D4 E4 | z4 D4 | E4 C4 x4 | D8 x6 | B,8 | %111
w: ri\- * * *||a, O|dul- cis|Vir-|go Ma-|ri- a,|Vir-|go Ma-|ri-|a,|
 z4 D4 | E8 | D8 | z4 C4 | B,8 | C4 A,4 | C4 D4 | E8 | D4 E4 | (F4 A6 | G2 G4- G4 | ^F4) G8 x4 | %123
w: O|cle-|mens,|O|pi-|a, O|dul- cis|Vir-|go Ma-|ri\- *||* a,|
 z4 E4 x8 | F4 D4 x8 | A4 (G2 F2 | E4) F4 | (G2 F2 E2 D2 | E8) | F4 F4 | D4 E4 | F8 | E4 A,4 | %133
w: O|dul- cis|Vir- go *|* Ma-|ri\- * * *||a, O|dul- cis|Vir-|go Ma-|
 D4 E4 | z4 D4 | E4 C4 x4 | D8 x14 |] !fermata!B,16 | x8 | x16 | x8 | x8 | x8 | x8 | x16 |] %145
w: ri- a,|Vir-|go Ma-|ri-|a.||||||||
V:3
 z4 d4 | d4 D4 | E8 | G8 | G8 | B8- | B4 c4 | B4 A4 | G6 G2 | d8 | A8 | G4 A4 | %12
w: Sal-|ve Re-|gi-|na,|Ma-|ter|* mi-|se- ri-|cor- di-|ae,|vi-|ta, dul-|
[M:2/2][K:treble-8] A8 | G4 d4 | c8 x4 | e8 | d8 x4 | d8 x4 | B8 | d8 | d4 f4 | e8 x2 | d4 d6 | %23
w: ce-|do, et|spes|no-|stra|sal-|ve.|Ad|te cla-|ma-|mus e-|
 d2 B4 d4 x2 | d4 e8 | d6 d2 x2 | ^c4 (d4- x14 | d2 ^cB !courtesy!^c4) | d8 | z4 A4 | c4 c4 | %31
w: xu- les fi-|li- i,|fi- li-|i E\-||vae.|Ad|te su-|
 z2 B2 G4 | A4 B4 | c8 | A4 A4 | ^G8 x4 | ^G4 A4 x4 | A4 A8 | G4 G4 x8 | G8 x8 | ^F4 G8 x4 | %41
w: spi- ra-|mus ge-|men-|tes et|flen-|tes in|hac la-|cry- ma-|rum|val- le.|
 z4 d4 | A4 B4 | (c2 BA G2 A2 | B8) | z8 x4 | z8 x8 | z4 d4 x12 | A4 B4 x2 | (c2 BA G2 A2 x6 | %50
w: E-|ia er-|go, * * * *||||e-|ia er-|go * * * *|
 B8) | c6 c2 | d4 e4 | d8 | c8 | c8- | c4 c4 | c8 | B4 G4 | A4 c4 | A8 | B8 | c6 c2 | A8- | A4 c4 | %65
w: |ad- vo-|ca- ta|no-|stra,|il\-|* los|tu-|os mi-|se- ri-|cor-|des|o- cu-|los|* ad|
 B4 A4 | B8 | A8 | A8 | (B6 A2 | G8) | A8 x4 | c6 c2 x12 | c4 c4 | B4 A4 | B4 d4 | (c2 B2 A2 G2 | %77
w: nos con-|ver-|te.|Et|Je\- *||sum|be- ne-|di- ctum|fru- ctum|ven- tris|tu\- * * *|
 A8) | G4 G4 | G8 | G8 | A8 x2 | z4 G4 x8 | c4 c4 | B8 | A8- | A8 | B4 e4 | d4 c4 | d8 | c8 | %91
w: |i, no-|bis|post|hoc,|no-|bis post|hoc|ex\-||i- li-|um o-|sten-|de.|
 z4 B4 | c8 | A4 D4 x2 | (A8 x2 | ^G8) x4 | A8 | z8 x8 | z4 A4 x8 | B4 c4 x8 | d8 | c4 e4 | d8 | %103
w: O|cle-|mens, O|pi\-||a,||O|dul- cis|Vir-|go Ma-|ri-|
 G4 G4 | B4 c4 | d8 | d4 d4 | (c6 d2 | e2 d2 d8 | ^c4) d8 x2 | z8 | z4 D4 | E4 F4 | G8 | d4 A4 | %115
w: a, O|dul- cis|Vir-|go Ma-|ri\- *||* a,||O|dul- cis|Vir-|go Ma-|
 (c2 B2 A2 G2 | A8) | G8 | z4 B4 | c8 | A4 D4 x2 | (A8 x2 | ^G8) x8 | A8 x8 | z8 x8 | z4 A4 | %126
w: ri\- * * *||a,|O|cle-|mens, O|pi\-||a,||O|
 B4 c4 | d8 | c4 e4 | d8 | G4 G4 | B4 c4 | d8 | d4 d4 | (c6 d2 | e2 d2 d8 | ^c4) d8 x10 |] z8 x8 | %138
w: dul- cis|Vir-|go Ma-|ri-|a, O|dul- cis|Vir-|go Ma-|ri\- *||* a,||
 z4 D4 | E4 F4 x8 | G8 | d4 A4 | (c2 B2 A2 G2 | A8) | !fermata!G16 |] %145
w: O|dul- cis|Vir-|go Ma-|ri\- * * *||a.|
V:4
 G,,8 | D,4 B,,4 | A,,8 | G,,8 | C,8 | G,8- | G,4 A,4 | G,4 ^F,4 | G,4 E,4 | D,8 | D,8 | E,4 A,,4 | %12
w: Sal-|ve Re-|gi-|na,|Ma-|ter|* mi-|se- ri-|cor- di-|ae,|vi-|ta, dul-|
[M:2/2] D,8 | G,8 | C,12 | A,,4 B,,4 | G,,4 D,8 | G,,8 x4 | G,8 | G,4 D,4 | A,8 | D,4 D,6 | %22
w: ce-|do,|et|spes no-|stra sal-|ve.|Ad|te cla-|ma-|mus e-|
 D,2 E,4 D,4 | G,4 C,8 | D,8 x4 | A,4 _B,4 x2 | A,8 x14 | D,8 | z4 D,4 | C,4 F,4 | z2 G,2 E,4 | %31
w: xu- les fi-|li- i,|fi-|li- i|E-|vae.|Ad|te su-|spi- ra-|
 D,4 G,4 | C,8 | D,4 D,4 | E,8 | E,4 A,,4 x4 | D,4 F,8 | G,4 C,4 x4 | E,4 D,8 x4 | G,,8 x8 | %40
w: mus ge-|men-|tes et|flen-|tes in|hac la-|cry- ma-|rum val-|le.|
 G,8 x8 | ^F,4 G,4 | (C,2 D,2 E,2 F,2 | G,8) | z8 | z8 x4 | G,8 x8 | ^F,4 G,4 x12 | %48
w: E-|ia er-|go, * * *||||e-|ia er-|
 (C,2 D,2 E,2 F,2 x2 | G,8) x6 | C,6 C,2 | B,,4 C,4 | G,8 | C,8 | F,8- | F,4 F,4 | F,8 | G,4 E,4 | %58
w: go * * *||ad- vo-|ca- ta|no-|stra,|il\-|* los|tu-|os mi-|
 D,4 C,4 | F,8 | E,8 | A,6 A,2 | D,4 ^C,4 | D,4 A,,4 | E,8- | E,8 | A,,8 | D,8 | (G,6 F,2 | E,8) | %70
w: se- ri-|cor-|des|o- cu-|los ad|nos con-|ver\-||te.|Et|Je\- *||
 D,8 | C,6 C,2 x4 | C,4 C,4 x12 | G,4 A,4 | G,4 F,4 | (E,8 | D,8) | G,,4 G,,4 | C,4 C,4 | B,,8 | %80
w: sum|be- ne-|di- ctum|fru- ctum|ven- tris|tu\-||i, no-|bis post|hoc|
 A,,8 | E,6 E,2 x2 | A,,4 A,4 x8 | E,4 G,4 | F,4 D,4 | F,6 F,2 | E,4 C,4 | (G,8 | G,,8) | C,8 | %90
w: ex-|i- li-|um, no-|bis post|hoc ex-|i- li-|um o-|sten\-||de.|
 z4 G,4 | C,8 | D,8 | z4 A,,4 x2 | E,8 x2 | A,,8 x4 | z8 | z16 | z16 | z16 | z8 | z4 D,4 | %102
w: O|cle-|mens,|O|pi-|a,||||||O|
 F,4 G,4 | A,8 | G,4 _B,4 | A,8 | D,8 | z8 | z8 x4 | A,,8 x6 | B,,4 C,4 | D,8 | C,4 E,4 | D,8 | %114
w: dul- cis|Vir-|go Ma-|ri-|a,|||O|dul- cis|Vir-|go Ma-|ri-|
 G,,8 | z4 G,4 | C,8 | D,8 | z4 A,,4 | E,8 | A,,8 x2 | z8 x2 | z16 | z16 | z16 | z8 | z4 D,4 | %127
w: a,|O|cle-|mens,|O|pi-|a,||||||O|
 F,4 G,4 | A,8 | G,4 _B,4 | A,8 | D,8 | z8 | z8 | A,,8 | B,,4 C,4 x4 | D,8 x14 |] C,4 E,4 x8 | %138
w: dul- cis|Vir-|go Ma-|ri-|a,|||O|dul- cis|Vir-|go Ma-|
 D,8 | !fermata!G,,16 | x8 | x8 | x8 | x8 | x16 |] %145
w: ri-|a.||||||

